assets/img/form-img-4.svg

<svg width="66" height="66" viewBox="0 0 66 66" fill="none" xmlns="http://www.w3.org/2000/svg">
<circle cx="32.7699" cy="32.7699" r="32.7699" fill="#FF7D34"/>
<g clip-path="url(#clip0_1_850)">
<path d="M17.9679 22.4645C17.299 22.4645 16.6806 22.4507 16.0628 22.4698C15.7241 22.4803 15.4351 22.7538 15.4032 23.1043C15.3694 23.472 15.3959 23.845 15.3959 24.212C16.0994 24.3531 16.1558 24.4209 16.1558 25.128C16.1558 25.9075 16.1572 26.6877 16.1558 27.4673C16.1552 27.947 15.9745 28.1315 15.5022 28.1341C15.0705 28.1368 14.6387 28.1374 14.207 28.1341C13.7353 28.1302 13.564 27.9641 13.562 27.5016C13.5587 26.6779 13.5607 25.8542 13.5607 25.0305C13.5607 24.4176 13.6623 24.303 14.3199 24.2279C14.3199 23.9432 14.3179 23.6513 14.3199 23.3594C14.3292 22.1614 15.0937 21.4075 16.2973 21.4069C16.8373 21.4069 17.378 21.4069 17.9692 21.4069C17.9692 20.9225 17.9426 20.4646 17.9758 20.0099C18.0177 19.4432 18.0449 18.8626 18.1911 18.3183C18.8746 15.7774 21.1569 14.1287 23.9453 14.1274C30.4987 14.1254 37.0521 14.1234 43.6054 14.1327C44.1667 14.1333 44.7406 14.1557 45.2866 14.2717C47.9462 14.8371 49.8054 17.1303 49.83 19.8287C49.8347 20.342 49.8307 20.8547 49.8307 21.4075C50.3508 21.4075 50.8363 21.4359 51.3179 21.4023C52.7108 21.3034 53.579 22.2866 53.4833 23.5406C53.466 23.7673 53.4807 23.9966 53.4807 24.218C54.1608 24.3234 54.2385 24.4157 54.2385 25.0792C54.2385 25.8812 54.2405 26.6825 54.2385 27.4844C54.2372 27.9668 54.0665 28.1335 53.577 28.1361C53.1233 28.1381 52.669 28.1414 52.2153 28.1328C51.8579 28.1262 51.6513 27.9365 51.6474 27.5846C51.6367 26.662 51.6354 25.7395 51.646 24.817C51.65 24.4407 51.84 24.3023 52.4026 24.2233C52.4026 23.8483 52.4332 23.4655 52.3933 23.0905C52.3581 22.7558 52.1243 22.5014 51.7868 22.4816C51.1505 22.4447 50.5102 22.4711 49.8307 22.4711C49.8307 22.6226 49.8307 22.7505 49.8307 22.879C49.8307 29.4244 49.832 35.9691 49.8287 42.5145C49.8287 43.7316 49.3112 44.6858 48.2498 45.3013C47.8665 45.5233 47.4148 45.6294 46.9419 45.808C46.9419 45.8719 46.9419 45.9905 46.9419 46.1085C46.9419 47.064 46.9472 48.0194 46.9386 48.9749C46.9286 50.0471 46.1913 50.8029 45.1099 50.8325C44.3686 50.853 43.6267 50.851 42.8854 50.8365C41.7569 50.8141 41.0089 50.0457 41.0056 48.9242C41.003 47.9905 41.0056 47.0574 41.0056 46.1236V45.752H27.0599C27.0599 45.8871 27.0599 46.0044 27.0599 46.121C27.0599 47.0653 27.0639 48.0102 27.058 48.9545C27.0513 50.0128 26.3393 50.7805 25.2765 50.8266C24.4814 50.8615 23.6816 50.8595 22.8865 50.8273C21.845 50.7851 21.1303 50.0141 21.125 48.9749C21.1203 48.0306 21.123 47.0864 21.1223 46.1414C21.1223 46.0222 21.1223 45.9029 21.1223 45.7632C20.9483 45.7375 20.7988 45.7177 20.6507 45.6927C19.0652 45.4251 17.9792 44.1632 17.9712 42.5653C17.9645 41.2474 17.9699 39.9295 17.9699 38.6115C17.9699 33.3511 17.9685 28.0913 17.9685 22.8309C17.9685 22.7228 17.9685 22.6154 17.9685 22.4665L17.9679 22.4645ZM33.9036 44.6766C38.1095 44.6766 42.3155 44.6779 46.5208 44.6726C46.7832 44.6726 47.0575 44.6561 47.3052 44.579C48.2451 44.2871 48.7725 43.5023 48.7725 42.4322C48.7739 34.9655 48.7732 27.4996 48.7725 20.033C48.7725 17.2166 46.7473 15.1804 43.907 15.1765C37.1995 15.1672 30.4927 15.1672 23.7853 15.1758C21.1084 15.1791 19.0287 17.2535 19.0267 19.9078C19.0227 27.4179 19.0253 34.9286 19.0267 42.4388C19.0267 43.8199 19.8948 44.6766 21.2851 44.6766C25.491 44.6766 29.697 44.6766 33.9023 44.6766H33.9036ZM22.1951 45.7414C22.1951 46.9025 22.1765 48.0306 22.205 49.1575C22.215 49.5416 22.5637 49.7828 23.0088 49.7887C23.7281 49.7986 24.4475 49.8006 25.1662 49.7874C25.7009 49.7775 25.9952 49.4632 25.9972 48.9281C26.0005 47.9621 25.9992 46.9961 25.9972 46.0301C25.9972 45.9365 25.9812 45.8423 25.9719 45.7414H22.1944H22.1951ZM42.0843 45.7414C42.0757 45.8548 42.0644 45.9398 42.0644 46.0248C42.0631 46.9796 42.0611 47.9351 42.0651 48.8899C42.0677 49.5001 42.3646 49.7874 42.9897 49.7907C43.6313 49.794 44.273 49.7927 44.9153 49.7907C45.6061 49.7894 45.8844 49.5173 45.8864 48.8339C45.8891 47.912 45.8864 46.9895 45.8851 46.0676C45.8851 45.9615 45.8731 45.8554 45.8665 45.7408H42.0837L42.0843 45.7414Z" fill="white"/>
<path d="M34.0537 18.8029C37.6293 18.8029 41.2049 18.8016 44.7811 18.8056C45.0455 18.8056 45.3172 18.8102 45.5723 18.8702C46.3494 19.052 46.8987 19.74 46.9359 20.5386C46.9426 20.681 46.9432 20.824 46.9432 20.967C46.9432 24.6676 46.9439 28.369 46.9432 32.0697C46.9432 32.6852 46.8708 32.7768 46.2544 32.9085C41.4447 33.9378 36.5765 34.268 31.6684 34.098C28.6222 33.9925 25.6 33.667 22.6089 33.0753C22.2834 33.0107 21.9586 32.9454 21.6351 32.8716C21.2578 32.786 21.1243 32.6311 21.1237 32.2562C21.1217 28.3683 21.1177 24.4805 21.127 20.5933C21.1296 19.6411 21.8377 18.911 22.7962 18.8221C22.9942 18.8036 23.1941 18.8036 23.3934 18.8036C26.947 18.8023 30.5007 18.8029 34.0544 18.8029H34.0537ZM33.9986 19.8494V19.8507C30.3798 19.8507 26.7604 19.8507 23.1416 19.8507C22.4721 19.8507 22.1732 20.1321 22.1725 20.7792C22.1705 24.3915 22.1738 28.0039 22.1659 31.6157C22.1659 31.8522 22.2409 31.9425 22.4714 31.9781C24.0775 32.2245 25.6757 32.5336 27.2878 32.724C30.5246 33.1056 33.7754 33.1748 37.0322 33.0212C39.899 32.8861 42.7406 32.554 45.5543 31.9893C45.8067 31.9386 45.8931 31.8483 45.8924 31.5847C45.8838 27.9947 45.8871 24.4041 45.8864 20.8141C45.8864 20.1301 45.6041 19.8494 44.922 19.8494C41.2806 19.8494 37.6393 19.8494 33.9986 19.8494Z" fill="white"/>
<path d="M34.0278 38.0167C35.3549 38.0167 36.6827 38.0154 38.0099 38.0167C38.8302 38.0174 39.3051 38.4826 39.3118 39.3023C39.3184 40.1471 39.3197 40.9925 39.3118 41.8373C39.3045 42.6696 38.8269 43.1348 37.982 43.1355C35.3489 43.1381 32.7166 43.1374 30.0835 43.1355C29.2379 43.1348 28.757 42.6768 28.7444 41.8439C28.7318 40.9991 28.7318 40.1537 28.7437 39.3089C28.7557 38.4707 29.2333 38.0174 30.0782 38.0167C31.3947 38.016 32.7112 38.0167 34.0271 38.0167H34.0278ZM34.0444 39.0664C32.7498 39.0664 31.4558 39.073 30.1612 39.0611C29.8889 39.0585 29.7899 39.1402 29.7946 39.4157C29.8085 40.184 29.8072 40.9523 29.7946 41.72C29.7906 41.9816 29.8656 42.0904 30.1493 42.0897C32.7378 42.0818 35.327 42.0818 37.9155 42.0897C38.1766 42.0904 38.2649 42.0034 38.2609 41.7477C38.2497 40.9688 38.247 40.1893 38.2623 39.4104C38.2676 39.1297 38.16 39.0585 37.893 39.0611C36.6096 39.0723 35.3263 39.0664 34.043 39.0664H34.0444Z" fill="white"/>
<path d="M46.9386 40.6017C46.9153 42.0224 45.7443 43.1631 44.3394 43.1334C42.8914 43.1025 41.7682 41.9453 41.7954 40.5114C41.822 39.1052 43.0017 37.9883 44.4304 38.0166C45.8373 38.045 46.9618 39.2034 46.9393 40.6017H46.9386ZM42.8522 40.5767C42.8549 41.403 43.5404 42.085 44.372 42.0877C45.193 42.0903 45.8838 41.3991 45.8878 40.5701C45.8924 39.7504 45.199 39.0664 44.364 39.0677C43.5264 39.069 42.8496 39.7444 42.8515 40.5767H42.8522Z" fill="white"/>
<path d="M26.276 40.6017C26.2528 42.0224 25.0817 43.1631 23.6768 43.1334C22.2288 43.1025 21.1056 41.9453 21.1328 40.5114C21.1594 39.1052 22.3391 37.9883 23.7678 38.0166C25.1747 38.045 26.2992 39.2034 26.2767 40.6017H26.276ZM22.1896 40.5767C22.1923 41.403 22.8778 42.085 23.7094 42.0877C24.5304 42.0903 25.2212 41.3991 25.2252 40.5701C25.2298 39.7504 24.5364 39.0664 23.7014 39.0677C22.8638 39.069 22.187 39.7444 22.1889 40.5767H22.1896Z" fill="white"/>
</g>
<defs>
<clipPath id="clip0_1_850">
<rect width="40.6799" height="36.7249" fill="white" transform="translate(13.5601 14.125)"/>
</clipPath>
</defs>
</svg>

<?xml version="1.0"?>
<svg width="66" height="66" xmlns="http://www.w3.org/2000/svg" xmlns:svg="http://www.w3.org/2000/svg">
 <defs>
  <clipPath id="clip0_1_850">
   <rect fill="white" height="36.72" id="svg_1" transform="translate(13.5601 14.125)" width="40.68"/>
  </clipPath>
 </defs>
 <g class="layer">
  <title>Layer 1</title>
  <circle cx="32.77" cy="32.77" fill="#6d9bc6" id="svg_2" r="32.77"/>
  <g clip-path="url(#clip0_1_850)" id="svg_3">
   <path d="m17.97,22.46c-0.67,0 -1.29,-0.01 -1.91,0.01c-0.34,0.01 -0.62,0.28 -0.66,0.63c-0.03,0.37 0,0.74 0,1.11c0.7,0.14 0.76,0.21 0.76,0.92c0,0.78 0,1.56 0,2.34c0,0.48 -0.19,0.66 -0.66,0.66c-0.43,0.01 -0.86,0.01 -1.29,0c-0.47,0 -0.65,-0.17 -0.65,-0.63c0,-0.82 0,-1.65 0,-2.47c0,-0.61 0.1,-0.73 0.76,-0.8c0,-0.29 0,-0.58 0,-0.87c0.01,-1.2 0.77,-1.95 1.98,-1.95c0.54,0 1.08,0 1.67,0c0,-0.49 -0.03,-0.95 0.01,-1.4c0.04,-0.57 0.06,-1.15 0.21,-1.69c0.68,-2.54 2.97,-4.19 5.76,-4.19c6.55,0 13.1,-0.01 19.66,0c0.56,0 1.13,0.03 1.68,0.14c2.66,0.57 4.52,2.86 4.54,5.56c0,0.51 0,1.02 0,1.58c0.52,0 1.01,0.03 1.49,-0.01c1.39,-0.1 2.26,0.89 2.16,2.14c-0.01,0.23 0,0.46 0,0.68c0.68,0.1 0.76,0.2 0.76,0.86c0,0.8 0,1.6 0,2.4c0,0.49 -0.17,0.65 -0.66,0.66c-0.46,0 -0.91,0 -1.36,-0.01c-0.36,0 -0.57,-0.19 -0.57,-0.55c-0.01,-0.92 -0.01,-1.84 0,-2.76c0,-0.38 0.19,-0.52 0.75,-0.6c0,-0.37 0.03,-0.75 -0.01,-1.13c-0.03,-0.33 -0.27,-0.59 -0.6,-0.61c-0.64,-0.04 -1.28,-0.01 -1.96,-0.01c0,0.15 0,0.28 0,0.41c0,6.54 0,13.09 0,19.63c0,1.22 -0.52,2.18 -1.58,2.79c-0.38,0.22 -0.84,0.33 -1.31,0.51c0,0.06 0,0.18 0,0.3c0,0.95 0.01,1.91 0,2.86c-0.01,1.08 -0.75,1.83 -1.83,1.86c-0.74,0.02 -1.48,0.02 -2.22,0.01c-1.13,-0.03 -1.88,-0.79 -1.88,-1.92c-0.01,-0.93 0,-1.86 0,-2.8l0,-0.37l-13.95,0c0,0.14 0,0.25 0,0.37c0,0.95 0,1.89 0,2.83c-0.01,1.06 -0.72,1.83 -1.78,1.88c-0.8,0.03 -1.6,0.03 -2.39,0c-1.05,-0.04 -1.76,-0.82 -1.76,-1.86c-0.01,-0.94 -0.01,-1.88 -0.01,-2.83c0,-0.12 0,-0.24 0,-0.38c-0.17,-0.02 -0.32,-0.04 -0.47,-0.07c-1.58,-0.26 -2.67,-1.53 -2.68,-3.12c-0.01,-1.32 0,-2.64 0,-3.96c0,-5.26 0,-10.52 0,-15.78c0,-0.11 0,-0.21 0,-0.36l0,-0.01zm15.93,22.22c4.21,0 8.42,0 12.62,-0.01c0.26,0 0.54,-0.01 0.79,-0.09c0.94,-0.29 1.46,-1.08 1.46,-2.15c0,-7.46 0,-14.93 0,-22.4c0,-2.81 -2.02,-4.85 -4.86,-4.85c-6.71,-0.01 -13.42,-0.01 -20.12,0c-2.68,0 -4.76,2.07 -4.76,4.73c-0.01,7.51 0,15.02 0,22.53c0,1.38 0.86,2.24 2.26,2.24c4.2,0 8.41,0 12.61,0l0,0zm-11.7,1.06c0,1.16 -0.02,2.29 0,3.42c0.01,0.38 0.36,0.62 0.81,0.63c0.72,0.01 1.44,0.01 2.16,0c0.53,-0.01 0.83,-0.33 0.83,-0.86c0,-0.97 0,-1.93 0,-2.9c0,-0.09 -0.02,-0.19 -0.03,-0.29l-3.78,0l0.01,0zm19.88,0c0,0.11 -0.02,0.2 -0.02,0.28c0,0.96 0,1.92 0.01,2.87c0,0.61 0.29,0.9 0.92,0.9c0.64,0 1.28,0 1.93,0c0.69,0 0.96,-0.27 0.97,-0.96c0,-0.92 0,-1.84 0,-2.76c0,-0.11 -0.02,-0.21 -0.02,-0.33l-3.79,0l0,0z" fill="white" id="svg_4"/>
   <path d="m34.05,18.8c3.58,0 7.15,0 10.73,0.01c0.27,0 0.54,0 0.79,0.06c0.78,0.18 1.33,0.87 1.37,1.67c0,0.14 0,0.28 0,0.43c0,3.7 0,7.4 0,11.1c0,0.62 -0.07,0.71 -0.69,0.84c-4.81,1.03 -9.67,1.36 -14.58,1.19c-3.05,-0.11 -6.07,-0.43 -9.06,-1.02c-0.33,-0.07 -0.65,-0.13 -0.97,-0.21c-0.38,-0.08 -0.52,-0.24 -0.52,-0.61c0,-3.89 0,-7.78 0.01,-11.67c0,-0.95 0.71,-1.68 1.67,-1.77c0.19,-0.02 0.39,-0.02 0.59,-0.02c3.56,0 7.11,0 10.66,0l0,0zm-0.05,1.05l0,0c-3.62,0 -7.24,0 -10.86,0c-0.67,0 -0.97,0.28 -0.97,0.93c0,3.61 0,7.22 0,10.84c0,0.23 0.07,0.32 0.3,0.36c1.61,0.24 3.21,0.55 4.82,0.74c3.23,0.39 6.49,0.45 9.74,0.3c2.87,-0.13 5.71,-0.47 8.52,-1.03c0.26,-0.05 0.34,-0.14 0.34,-0.41c-0.01,-3.59 0,-7.18 0,-10.77c0,-0.68 -0.29,-0.96 -0.97,-0.96c-3.64,0 -7.28,0 -10.92,0z" fill="white" id="svg_5"/>
   <path d="m34.03,38.02c1.32,0 2.65,0 3.98,0c0.82,0 1.3,0.46 1.3,1.28c0.01,0.85 0.01,1.69 0,2.54c-0.01,0.83 -0.48,1.29 -1.33,1.3c-2.63,0 -5.26,0 -7.9,0c-0.84,-0.01 -1.32,-0.46 -1.34,-1.3c-0.01,-0.84 -0.01,-1.69 0,-2.53c0.02,-0.84 0.49,-1.29 1.34,-1.29c1.31,0 2.63,0 3.95,0l0,0zm0.01,1.05c-1.29,0 -2.58,0 -3.88,-0.01c-0.27,0 -0.37,0.08 -0.37,0.36c0.02,0.76 0.02,1.53 0,2.3c0,0.26 0.08,0.37 0.36,0.37c2.59,-0.01 5.18,-0.01 7.77,0c0.26,0 0.34,-0.09 0.34,-0.34c-0.01,-0.78 -0.01,-1.56 0,-2.34c0.01,-0.28 -0.1,-0.35 -0.37,-0.35c-1.28,0.01 -2.56,0.01 -3.85,0.01l0,0z" fill="white" id="svg_6"/>
   <path d="m46.94,40.6c-0.02,1.42 -1.2,2.56 -2.6,2.53c-1.45,-0.03 -2.57,-1.18 -2.54,-2.62c0.02,-1.4 1.2,-2.52 2.63,-2.49c1.41,0.03 2.53,1.18 2.51,2.58l0,0zm-4.09,-0.02c0,0.82 0.69,1.51 1.52,1.51c0.82,0 1.51,-0.69 1.52,-1.52c0,-0.82 -0.69,-1.5 -1.53,-1.5c-0.83,0 -1.51,0.67 -1.51,1.51l0,0z" fill="white" id="svg_7"/>
   <path d="m26.28,40.6c-0.03,1.42 -1.2,2.56 -2.6,2.53c-1.45,-0.03 -2.57,-1.18 -2.55,-2.62c0.03,-1.4 1.21,-2.52 2.64,-2.49c1.4,0.03 2.53,1.18 2.51,2.58l0,0zm-4.09,-0.02c0,0.82 0.69,1.51 1.52,1.51c0.82,0 1.51,-0.69 1.52,-1.52c0,-0.82 -0.69,-1.5 -1.53,-1.5c-0.84,0 -1.51,0.67 -1.51,1.51l0,0z" fill="white" id="svg_8"/>
  </g>
 </g>
</svg>
